assets/img/braze_icons/expand-01.svg

<svg fill="none" height="24" viewBox="0 0 24 24" width="24" xmlns="http://www.w3.org/2000/svg"><g fill="#801ed7"><path d="m14 3c0-.55228.4477-1 1-1h6c.5523 0 1 .44772 1 1v6c0 .55229-.4477 1-1 1s-1-.44771-1-1v-3.58579l-5.2929 5.29289c-.3905.3905-1.0237.3905-1.4142 0s-.3905-1.02368 0-1.41421l5.2929-5.29289h-3.5858c-.5523 0-1-.44772-1-1z"/><path d="m5.41421 20 5.29289-5.2929c.3905-.3905.3905-1.0237 0-1.4142s-1.02368-.3905-1.41421 0l-5.29289 5.2929v-3.5858c0-.5523-.44771-1-1-1-.55228 0-1 .4477-1 1v6c0 .5523.44772 1 1 1h6c.55228 0 1-.4477 1-1s-.44772-1-1-1z"/></g></svg>

<svg width="24" height="24" viewBox="0 0 24 24" fill="none" xmlns="http://www.w3.org/2000/svg">
<path d="M14 3C14 2.44772 14.4477 2 15 2H21C21.5523 2 22 2.44772 22 3V9C22 9.55229 21.5523 10 21 10C20.4477 10 20 9.55229 20 9V5.41421L14.7071 10.7071C14.3166 11.0976 13.6834 11.0976 13.2929 10.7071C12.9024 10.3166 12.9024 9.68342 13.2929 9.29289L18.5858 4H15C14.4477 4 14 3.55228 14 3Z" fill="#801ED7"/>
<path d="M5.41421 20L10.7071 14.7071C11.0976 14.3166 11.0976 13.6834 10.7071 13.2929C10.3166 12.9024 9.68342 12.9024 9.29289 13.2929L4 18.5858L4 15C4 14.4477 3.55229 14 3 14C2.44772 14 2 14.4477 2 15V21C2 21.5523 2.44772 22 3 22H9C9.55228 22 10 21.5523 10 21C10 20.4477 9.55228 20 9 20H5.41421Z" fill="#801ED7"/>
</svg>
